lib/brands/icons/eventbrite.svg

<svg xmlns="http://www.w3.org/2000/svg" fill="none" aria-hidden="true" viewBox="0 0 48 48"><g id="eventbrite-Icon"><g id="Group"><path id="Vector" fill="#F05537" d="M24 42C33.9411 42 42 33.9411 42 24C42 14.0589 33.9411 6 24 6C14.0589 6 6 14.0589 6 24C6 33.9411 14.0589 42 24 42Z"/><path id="Vector_2" fill="white" d="M22.5199 17.6338C25.2335 17.0307 27.9472 18.1363 29.4548 20.2469L17.4611 22.9606C17.8631 20.3809 19.8062 18.2368 22.5199 17.6338ZM29.5218 27.5838C28.5837 28.9574 27.1431 29.929 25.5015 30.2975C22.7879 30.9005 20.0407 29.795 18.5331 27.6508L30.5603 24.9372L32.5034 24.5017L36.2556 23.6641C36.2221 22.8601 36.1216 22.056 35.9541 21.2855C34.4465 14.8196 27.8467 10.7659 21.2468 12.2735C14.6469 13.781 10.5262 20.2134 12.0673 26.7128C13.6084 33.2122 20.1747 37.2324 26.7746 35.7248C30.6608 34.8538 33.676 32.2406 35.2171 28.9239L29.5218 27.5838Z"/></g></g></svg>

<svg xmlns="http://www.w3.org/2000/svg" fill="none" aria-hidden="true" viewBox="0 0 48 48"><path fill="#F05537" d="M24 42c9.941 0 18-8.059 18-18S33.941 6 24 6 6 14.059 6 24s8.059 18 18 18Z"/><path fill="#fff" d="M22.52 17.634c2.714-.603 5.427.502 6.935 2.613L17.46 22.96c.402-2.58 2.345-4.724 5.059-5.327Zm7.002 9.95a6.623 6.623 0 0 1-4.02 2.713c-2.714.604-5.461-.502-6.969-2.646l12.027-2.714 1.944-.435 3.752-.838a13.997 13.997 0 0 0-.302-2.379c-1.507-6.465-8.107-10.52-14.707-9.012-6.6 1.508-10.72 7.94-9.18 14.44 1.541 6.5 8.108 10.52 14.708 9.012a12.234 12.234 0 0 0 8.442-6.801l-5.695-1.34Z"/></svg>
